Simply-White-Circles/scalable/places/folder-image-people.svg

<svg xmlns="http://www.w3.org/2000/svg" width="48" height="48" viewBox="0 0 12.7 12.7"><path d="M6.35.06a6.29 6.29 0 0 0-6.29 6.3 6.29 6.29 0 0 0 6.3 6.28 6.29 6.29 0 0 0 6.28-6.29A6.29 6.29 0 0 0 6.35.06zM6.34 1a5.4 5.4 0 0 1 5.4 5.4 5.4 5.4 0 0 1-5.4 5.41 5.4 5.4 0 0 1-5.41-5.4A5.4 5.4 0 0 1 6.33.99zm.04.84c-.92 0-1.67.66-1.67 1.48 0 .3.04.67.23 1.49.08.23.6.71.9 1.02a.66.66 0 0 1-.08.33C4.81 6.5 3.09 7.11 3 7.5l-.25 2.15c1.67.9 5.6.86 7.22 0-.06-.44-.1-1.7-.16-2.15-.44-.51-1.57-.81-2.77-1.34a.53.53 0 0 1-.1-.24c.24-.29.8-.86.89-1.11.2-.86.21-1.17.22-1.49 0-.82-.75-1.48-1.67-1.48z" fill="#e6e6e6"/></svg>

<?xml version="1.0" encoding="UTF-8" standalone="no"?>
<svg
   xmlns:dc="http://purl.org/dc/elements/1.1/"
   xmlns:cc="http://creativecommons.org/ns#"
   xmlns:rdf="http://www.w3.org/1999/02/22-rdf-syntax-ns#"
   xmlns:svg="http://www.w3.org/2000/svg"
   xmlns="http://www.w3.org/2000/svg"
   xmlns:sodipodi="http://sodipodi.sourceforge.net/DTD/sodipodi-0.dtd"
   xmlns:inkscape="http://www.inkscape.org/namespaces/inkscape"
   width="48"
   height="48"
   viewBox="0 0 12.7 12.7"
   version="1.1"
   id="svg4"
   sodipodi:docname="folder-image-people.svg"
   inkscape:version="0.92.4 (5da689c313, 2019-01-14)">
  <metadata
     id="metadata10">
    <rdf:RDF>
      <cc:Work
         rdf:about="">
        <dc:format>image/svg+xml</dc:format>
        <dc:type
           rdf:resource="http://purl.org/dc/dcmitype/StillImage" />
        <dc:title></dc:title>
      </cc:Work>
    </rdf:RDF>
  </metadata>
  <defs
     id="defs8" />
  <sodipodi:namedview
     pagecolor="#ffffff"
     bordercolor="#666666"
     borderopacity="1"
     objecttolerance="10"
     gridtolerance="10"
     guidetolerance="10"
     inkscape:pageopacity="0"
     inkscape:pageshadow="2"
     inkscape:window-width="1085"
     inkscape:window-height="480"
     id="namedview6"
     showgrid="false"
     inkscape:zoom="4.9166667"
     inkscape:cx="2.1355932"
     inkscape:cy="24"
     inkscape:window-x="0"
     inkscape:window-y="25"
     inkscape:window-maximized="0"
     inkscape:current-layer="svg4" />
  <path
     d="M 6.35,0.06 A 6.29,6.29 0 0 0 0.06,6.36 6.29,6.29 0 0 0 6.36,12.64 6.29,6.29 0 0 0 12.64,6.35 6.29,6.29 0 0 0 6.35,0.06 Z M 6.34,1 a 5.4,5.4 0 0 1 5.4,5.4 5.4,5.4 0 0 1 -5.4,5.41 A 5.4,5.4 0 0 1 0.93000003,6.41 5.4,5.4 0 0 1 6.33,0.99 Z m 0.04,0.84 c -0.92,0 -1.67,0.66 -1.67,1.48 0,0.3 0.04,0.67 0.23,1.49 0.08,0.23 0.6,0.71 0.9,1.02 A 0.66,0.66 0 0 1 5.76,6.16 C 4.81,6.5 3.09,7.11 3,7.5 L 2.75,9.65 c 1.67,0.9 5.6,0.86 7.2200003,0 -0.06,-0.44 -0.1,-1.7 -0.16,-2.15 C 9.37,6.99 8.24,6.69 7.04,6.16 A 0.53,0.53 0 0 1 6.94,5.92 C 7.18,5.63 7.74,5.06 7.83,4.81 8.03,3.95 8.04,3.64 8.05,3.32 8.05,2.5 7.3,1.84 6.38,1.84 Z"
     id="path2"
     inkscape:connector-curvature="0"
     style="fill:#e6e6e6" />
</svg>
